icon-themes/sifr_svg/res/savemodified_large.svg

<svg viewBox="0 0 24 24" xmlns="http://www.w3.org/2000/svg"><path d="m4 2c-1.108 0-2 .892-2 2v17c0 1.1.892 2 2 2h1v-9h14v9h1c1.1 0 2-.9 2-2v-12a5 5 0 0 1 -4 2h-12c-.554 0-1-.446-1-1v-4c0-.554.446-1 1-1h7.101562a5 5 0 0 1 1.898438-3zm3 14v7h10v-7zm2 2h2v3h-2z" fill="#555753"/><circle cx="18" cy="6" fill="#1c99e0" r="4"/></svg>

<svg xmlns="http://www.w3.org/2000/svg" viewBox="0 0 24 24">
  <path
     style="fill:#555753"
     d="M 4 2 C 2.892 2 2 2.892 2 4 L 2 21 C 2 22.1 2.892 23 4 23 L 5 23 L 5 14 L 19 14 L 19 23 L 20 23 C 21.1 23 22 22.1 22 21 L 22 9 A 5 5 0 0 1 18 11 L 6 11 C 5.446 11 5 10.554 5 10 L 5 6 C 5 5.446 5.446 5 6 5 L 13.101562 5 A 5 5 0 0 1 15. 2 L 4 2 z M 7 16 L 7 23 L 17 23 L 17 16 L 7 16 z M 9 18 L 11 18 L 11 21 L 9 21 L 9 18 z "
     />
  <circle
     style="fill:#1c99e0"
     cx="18"
     cy="6"
     r="4" />
</svg>
